X:480
T: ICH FUHR EINMAL AUF SITT
N: E1736
O: Europa, Mitteleuropa, Deutschland, Bergisches Land
R: Scherz -, Spiel - Lied, Pfaenderspiel
M: 4/4
L: 1/8
K: G
D2 | G2A2B2c2 | d2ded2
d2 | e2d2c2B2 | z6
D2 | G2A2B2c2 | d2ded2
d2 | e2d2c2B2 | d2z4
d2 | B2d2e2d2 | d2c2c4 |
c2A2d2c2 | c2B2B2
d2 | B2d2e2d2 | d2c2c3
c | A2A2d2d2 | z6
d2 | B2d2e2d2 | d2c2c4 |
c2A2d2c2 | c2B2B2
d2 | B2d2e2d2 | d2c2c3
c | A2A2d2d2 | G2z4

@@@ Tune index: 5164
